libs/ui/packages/crypto-icons/src/svg/BQ.svg

<svg width="24" height="24" viewBox="0 0 24 24" fill="none">
<path fill-rule="evenodd" clip-rule="evenodd" d="M7.4715 11.9655C7.47159 12.3458 7.54683 12.7223 7.69288 13.0735C7.83894 13.4246 8.05293 13.7434 8.32257 14.0116C8.59221 14.2798 8.91218 14.492 9.26411 14.6362C9.61603 14.7803 9.99296 14.8535 10.3733 14.8515C11.9648 14.8418 13.2577 13.5645 13.2585 12.0015C13.262 11.6202 13.1896 11.2419 13.0455 10.8888C12.9014 10.5358 12.6886 10.2148 12.4193 9.9448C12.15 9.67476 11.8297 9.46098 11.477 9.3159C11.1244 9.17082 10.7463 9.09735 10.365 9.09975C8.766 9.102 7.4715 10.3838 7.4715 11.9655ZM7.4745 15.0705V16.0253H6V5.25C6.41925 5.2575 6.77325 5.4075 7.0575 5.70375C7.32975 5.98875 7.4655 6.33 7.464 6.726C7.46025 7.43625 7.4625 8.1465 7.4625 8.8905C8.49225 8.03025 9.639 7.6065 10.9748 7.8105C12.2985 8.013 13.3148 8.679 14.0077 9.81825C15.054 11.5395 14.715 13.7378 13.1993 15.1058C11.721 16.4408 9.26475 16.6477 7.4745 15.0705ZM12.2438 16.0057C12.3023 15.9705 12.333 15.9495 12.3652 15.933C12.8297 15.7047 13.249 15.3942 13.6027 15.0165C13.6385 14.9758 13.6823 14.9429 13.7313 14.9198C13.7803 14.8967 13.8336 14.8839 13.8878 14.8822C15.1403 14.8103 16.269 13.8023 16.4813 12.5693C16.7603 10.9493 15.7762 9.51975 14.1488 9.20925C13.9252 9.17542 13.7207 9.06388 13.5712 8.89425C13.2712 8.56275 12.9067 8.304 12.519 8.08125C12.486 8.0625 12.4545 8.04225 12.4005 8.00925C13.1385 7.80675 13.8577 7.75875 14.5868 7.9245C15.312 8.08875 15.9367 8.44425 16.5217 8.9295V7.97325H18V18.75C17.8036 18.7488 17.6094 18.7082 17.4289 18.6307C17.2484 18.5531 17.0853 18.4402 16.9493 18.2985C16.8147 18.163 16.7087 18.0018 16.6376 17.8245C16.5664 17.6472 16.5317 17.4575 16.5353 17.2665V15.114C15.2618 16.1813 13.8533 16.5007 12.2438 16.0057Z" fill="#1D1D1D"/>
</svg>

<svg width="24" height="24" viewBox="0 0 24 24" fill="none"><path fill="#1d1d1d" fill-rule="evenodd" d="M7.472 11.966a2.887 2.887 0 0 0 2.901 2.886c1.592-.01 2.885-1.287 2.886-2.85A2.875 2.875 0 0 0 10.365 9.1c-1.599.002-2.894 1.284-2.894 2.866m.002 3.105v.954H6V5.25q.63.01 1.058.454.408.428.406 1.022c-.004.71-.002 1.42-.002 2.164 1.03-.86 2.177-1.284 3.513-1.08 1.324.203 2.34.869 3.033 2.008 1.046 1.722.707 3.92-.809 5.288-1.478 1.335-3.934 1.542-5.724-.036m4.77.935c.058-.036.089-.056.121-.073a4.3 4.3 0 0 0 1.238-.916.4.4 0 0 1 .285-.135c1.252-.072 2.381-1.08 2.593-2.313.28-1.62-.705-3.05-2.332-3.36a.96.96 0 0 1-.578-.315c-.3-.331-.664-.59-1.052-.813-.033-.018-.065-.039-.119-.072.739-.202 1.458-.25 2.187-.085.725.165 1.35.52 1.935 1.006v-.957H18V18.75a1.47 1.47 0 0 1-1.05-.451 1.43 1.43 0 0 1-.415-1.032v-2.153c-1.273 1.067-2.682 1.387-4.291.892" clip-rule="evenodd"/></svg>
